X: 305708
M: 6/8	% Actually, there is no time signature in this tune
L: 1/8
K: G
d^cd B2G | F2A c2e | e2d d2c | c3 B3 |\
d^cd B2G | F2A B/c/d/e/f/g/ | gfe dcB | A3 G2 H|]
e/f/ |\
gfg dcB | e2e g2g | dcB ABd | ddd dcd |\
gfg dcB | e2e g2g | dcB AGF | GGG "^D.C."G2 |]


